X: 2
T:The Rising Tide
R:reel
C:Tony Upton, 3/20/98
M:2/2
L:1/8
Q:1/4=240
K:Em
B,2ED C4|B,2G,2 A,4|B,B,ED C2 (3DCB,|B,G,A,G, A,4|
B,2ED G4|A2F2 G4|B,2ED G2 (3AGF|FDED E4:|
E3F G3A|B3c dcBA|EFGA BAGF|F2DF E2B,2|
E3F G3A|B3c dcBA|EFGA BAGF|F2DF E4:|
